X:17
T:Andy McGanns No42 Bunratty
R:reel
M:4/4
Q:105
K:G
GA|BE{F}ED E{F}EDE|GEDB, (3DED B,D|GE{F}ED E{F}EDE|G2BG ABGA|
B~E3 B,~E3|GEDB, (3DED B,D|GE{F}ED E{F}EDE|G2BG ADEF|
G2{A}GF GBdc|B2{c}BA BcBA|G{A}G GF GBdc|(3ABA GB A2 (3DEF|
G2{A}GF GBdc|(3BcB Ac ~B3A|G2GF GBdc|(3ABA GB A6|
